X: 102
T: Give Me Your Hand
B: begged borrowed and stolen
M:3/4
R: waltz
Q: 1/4=100
K:Gmajor
V:1 
D2|"C"E2 G2 G2|"G"G4 D2|"C"E2 G2 G2|"G"G4 D2|"C"E2 G2 G2|"G"G2 A2 B2|"Bm"B2 e2 d2|"Em"B4 AG|
"Am"A2 A2 ed|"G"B2 B2 dB|"Am"A3 B AG|"C"E4 D2|"C"E2 G2 G2|"G"G4 D2|"C"E2 G2 G2|"G"G4 D2|
"C"E2 G2 G2|"Em"G2 A2 B2|"D"D3 B AB|"G"G4 D2|"C"E2 G2 G2|"G"G2 A2 B2|"Bm"B2 e2 d2|"Em"B4 AG|
"Am"A2 A2 ed|"G"B2 B2 dB|"Am"A2 A2 Bd|"C"e4 dB|"G"d2 d2 e2|"Em"g4 ed|"C"e2 e2 g2|"D"a4 ge|
"G"g2 g2 de|"Em"g2 g2 de|"C"g2 g2 a2|"G"b6|"G"b2 b2 b2|"Em"b4 ag|"Am"ag ab ab|"D"a4 gf|
"C"e2 e2 ge|"G"d2 d2 gd|"Em"B2 B2 dB|"D"A3 c BA|"G"G2 G2 Bd|"F"=f4 ed|"C"e2 e2 g2|"Am"e4 dB|
"G"d2 d2 gd|"Em"B2 B2 dB|"D"A3 c BA|"G"G4||
% abcbook-tune_id 627e2b1f3a4fad2d7ff8cc23


% abcbook-boost 0
% abcbook-tablature 
% abcbook-transpose 
% abcbook-lastupdated 1652725431149
% abcbook-soundfonts 
% abcbook-repeats 3


